X:10
T:Sandy M'Gaff
R:jig
D:Joe Cormier, The Dances Down Home
B:Dungreen Collection, Kohler's Repository
Z:Paul Stewart Cranford (P.S.C.), <http://www.cranfordpub.com>
L:1/8
Q:300
M:6/8
K:Edor
E3 EFG|B3 Bcd|E2 E EFG|BAG FED|
E3 EFG|B2 c d2 e|fgf edc|dcB AGF:|
|:E2 e efg|fed e3|Eee efg|fga gfe|
DFA d2 e|fec d3|DFA d2 B|ABG FED:|
% if none of this makes sense, go to http://www.cranfordpub.com/tunes/abcs
